X: 161
T: Cottage at Larraga (h'pipe)
N: 030094
C: BB
R: hornpipe
Q: 330
M: C|
L: 1/8
K: Em
A|"Em"BGEG Be d2|"Am"ecAd "D"fa "G"g2|"D"afdf "G"gdBd|"C"ecBc "D"(3ABc BA|
"Em"BGEG Be d2|"Am"ecAd "D"fa "G"g2|"D"afdf "G"gbag|"Am"ec"D"AF "G"G3 :|
B|"Em"edBd efge|"D"fd^cd fgaf|"G"g2 bg "Em"eBBA|"G"GAB^c "D"dcdf|
"Em"edBd efge|"D"fd^cd fgaf|"G"bg"D"af "G"gfed|"Em"Beed e3 :|
%%%%%%%%%%%%%%%%%%%%%%%%%%%%%%%%%%%%%%%%%%%
